static/images/images.image.a4d5140b25f87749.44726177696e672031392e737667.svg

<?xml version="1.0" encoding="UTF-8" standalone="no"?>
<svg
   xmlns:dc="http://purl.org/dc/elements/1.1/"
   xmlns:cc="http://creativecommons.org/ns#"
   xmlns:rdf="http://www.w3.org/1999/02/22-rdf-syntax-ns#"
   xmlns:svg="http://www.w3.org/2000/svg"
   xmlns="http://www.w3.org/2000/svg"
   xmlns:sodipodi="http://sodipodi.sourceforge.net/DTD/sodipodi-0.dtd"
   xmlns:inkscape="http://www.inkscape.org/namespaces/inkscape"
   width="492.36874"
   viewBox="0 0 393.895 713.13896"
   version="1.1"
   height="891.42371"
   id="svg2"
   inkscape:version="0.48.3.1 r9886"
   sodipodi:docname="images.image.a4d5140b25f87749.44726177696e672031392e737667.svg">
  <metadata
     id="metadata102">
    <rdf:RDF>
      <cc:Work
         rdf:about="">
        <dc:format>image/svg+xml</dc:format>
        <dc:type
           rdf:resource="http://purl.org/dc/dcmitype/StillImage" />
      </cc:Work>
    </rdf:RDF>
  </metadata>
  <sodipodi:namedview
     pagecolor="#ffffff"
     bordercolor="#666666"
     borderopacity="1"
     objecttolerance="10"
     gridtolerance="10"
     guidetolerance="10"
     inkscape:pageopacity="0"
     inkscape:pageshadow="2"
     inkscape:window-width="1360"
     inkscape:window-height="992"
     id="namedview100"
     showgrid="false"
     fit-margin-top="10"
     fit-margin-right="10"
     fit-margin-bottom="10"
     fit-margin-left="10"
     inkscape:zoom="0.84343434"
     inkscape:cx="196.66125"
     inkscape:cy="461.51"
     inkscape:window-x="53"
     inkscape:window-y="24"
     inkscape:window-maximized="0"
     inkscape:current-layer="svg2" />
  <defs
     id="defs4" />
  <g
     id="back cloak"
     transform="translate(-148.671,-52.069032)">
    <path
       d="M 396.36,195.016 467.376,663.49 331.072,626.837 348.253,166.381 396.36,195.016 z"
       id="path7"
       inkscape:connector-curvature="0"
       style="fill:#607f84" />
    <path
       d="m 264.384,161.909 13.736,-2.305 56.92,0.328 20.983,3.88 -39.701,55.003 -63.681,-30.711 11.743,-26.195 z"
       id="path9"
       inkscape:connector-curvature="0"
       style="fill:#c89347" />
  </g>
  <g
     id="legs"
     transform="translate(-148.671,-52.069032)">
    <path
       d="m 257.853,570.413 1.61,21.739 8.856,66.023 -3.22,52.334 -12.883,16.103 -37.842,23.35 8.857,7.246 81.32,-8.051 -4.026,-28.181 0,-34.621 0.806,-46.699 9.661,-26.57 -12.882,-61.996 -39.452,-1.61"
       id="path12"
       inkscape:connector-curvature="0"
       style="fill:#ecbb73" />
    <path
       d="m 389.897,568.803 -1.61,21.739 -8.857,66.022 3.221,52.335 12.882,16.103 37.842,23.349 -8.856,7.247 -81.321,-8.052 4.026,-28.18 0,-34.621 -0.805,-46.699 -9.662,-26.57 12.883,-61.997 39.452,-1.61"
       id="path14"
       inkscape:connector-curvature="0"
       style="fill:#ecbb73" />
  </g>
  <g
     id="arm"
     transform="translate(-148.671,-52.069032)">
    <path
       d="m 390.148,183.901 18.75,24.456 -1.631,33.424 15.489,50.543 52.173,5.706 15.489,-22.826 19.565,15.489 -17.934,32.609 -24.456,-1.631 -71.739,-0.815 -17.934,-56.249 -14.674,-62.771 9.783,-30.978 17.119,13.043 z"
       id="path17"
       inkscape:connector-curvature="0"
       style="fill:#ecbb73" />
    <path
       d="m 408.671,243.062 44.358,31.252 -9.578,30.243 25.204,209.187 12.601,54.439 -53.431,-28.732 -9.145,-157.454 -6.985,-78.952 -3.024,-59.983 z"
       id="path19"
       inkscape:connector-curvature="0"
       style="fill:#82acb3" />
    <path
       d="m 493.224,277.555 27.46,-45.264 13.882,14.183 -30.78,39.229 -10.562,-8.148 z"
       id="path21"
       inkscape:connector-curvature="0"
       style="fill:#fff4e0" />
    <path
       d="m 383.985,207.848 -5.431,17.2 3.621,50.697 12.976,43.755 17.502,-0.301 -0.905,-14.787 -12.071,-11.467 -5.733,-24.443 -2.716,-25.65 -8.751,-17.2 1.508,-17.804 z"
       id="path23"
       inkscape:connector-curvature="0"
       style="fill:#c89347" />
    <path
       d="m 445.243,311.051 22.029,-2.414 -6.035,11.769 -15.994,0.905 0,-10.26 z"
       id="path25"
       inkscape:connector-curvature="0"
       style="fill:#c89347" />
    <path
       d="m 477.685,305.928 -5.82,-1.378 10.649,12.527 -3.757,4.626 13.018,1.531 -5.667,-10.873 -8.423,-6.433 z"
       id="path27"
       inkscape:connector-curvature="0"
       style="fill:#c89347" />
    <path
       d="m 476.542,307.56 9.354,9.053 -26.857,38.324 -13.579,-12.372 31.082,-35.005 z"
       id="path29"
       inkscape:connector-curvature="0"
       style="fill:#fff4e0" />
  </g>
  <g
     id="clothing"
     transform="translate(-148.671,-52.069032)">
    <path
       d="m 241.994,470.18 -1.835,94.497 178.903,-5.505 -27.524,-158.719 -2.752,-26.606 -135.783,22.937 -11.009,73.396 z"
       id="path32"
       inkscape:connector-curvature="0"
       style="fill:#f4f1e1" />
    <path
       d="m 225.476,405.638 174.454,-3.261 6.522,-27.717 -12.228,-32.609 -12.228,-40.76 -1.631,-68.477 -5.706,-61.141 -21.195,-12.228 -36.685,35.054 -66.032,-26.087 -25.271,237.226 z"
       id="path34"
       inkscape:connector-curvature="0"
       style="fill:#f4f1e1" />
    <path
       d="m 262.281,157.051 -55.152,33.453 -50.458,135.636 74.313,144.04 31.991,13.718 56.25,-63.587 34.239,-97.009 L 391.778,174.119 350.203,160.26 299,229.378 262.281,157.051 z"
       id="path36"
       inkscape:connector-curvature="0"
       style="fill:#607f84" />
  </g>
  <g
     id="hair"
     transform="translate(-148.671,-52.069032)">
    <path
       d="m 281.084,71.1676 -16.388,15.4431 -5.91,10.8351 3.546,4.1372 -6.107,7.88 1.182,12.017 0.197,12.411 5.319,3.94 2.758,8.668 9.456,-1.97 70.921,-0.591 10.047,-3.94 -3.152,-14.381 6.698,-7.092 -5.713,-15.957 0.985,-12.8053 -11.229,-6.895 -2.955,-7.0921 -11.992,-5.9776 -47.663,1.3696 z"
       id="path39"
       inkscape:connector-curvature="0"
       style="fill:#c8c5b8" />
  </g>
  <g
     id="ears"
     transform="translate(-148.671,-52.069032)">
    <path
       d="m 268.435,106.68 -4.919,-3.981 -5.386,6.558 3.044,14.287 3.982,6.792 6.089,-4.684 -2.81,-18.972 z"
       id="path42"
       inkscape:connector-curvature="0"
       style="fill:#c89347" />
    <path
       d="m 343.09,104.513 4.918,-3.981 5.387,6.558 -3.045,14.287 -3.981,6.792 -6.09,-4.684 2.811,-18.972 z"
       id="path44"
       inkscape:connector-curvature="0"
       style="fill:#ecbb73" />
  </g>
  <g
     id="Layer 1"
     transform="translate(-148.671,-52.069032)">
    <path
       d="m 271.723,114.213 c 0,-29.3119 6.693,-54.1914 33.428,-54.1439 26.736,0.0475 35.33,24.0737 35.33,53.3859 0,29.312 -12.667,52.763 -35.33,52.763 -22.663,0 -33.428,-22.692 -33.428,-52.005 z"
       id="path47"
       inkscape:connector-curvature="0"
       style="fill:#ecbb73" />
    <path
       d="m 297.164,132.221 10.613,5.348 8.447,-6.401 -6.199,9.997 -5.62,2.024 -7.241,-10.968 z"
       id="path49"
       inkscape:connector-curvature="0"
       style="fill:#c89347" />
    <path
       d="m 296.321,132.432 3.791,-6.002 -3.791,-0.211 -12.821,19.217 12.821,-13.004 z"
       id="path51"
       inkscape:connector-curvature="0"
       style="fill:#c89347" />
    <path
       d="m 316.119,131.484 1.474,-4.422 12.105,15.148 -13.579,-10.726 z"
       id="path53"
       inkscape:connector-curvature="0"
       style="fill:#c89347" />
    <path
       d="m 277.745,99.5223 19.017,6.1267 6.294,4.721 -0.623,19.327 -5.611,-3.616 -0.563,-8.717 -8.664,6.473 -12.637,-5.825 0.899,25.401 22.928,19.782 -28.548,-19.782 0.727,-31.727 3.165,-24.6326 8.603,-17.3318 -2.604,18.1688 -2.383,11.6319 z"
       id="path55"
       inkscape:connector-curvature="0"
       style="fill:#c89347" />
    <path
       d="m 309.984,110.044 6.11,-5.519 14.716,-3.764 6.864,9.608 -15.116,8.704 -5.434,-3.436 -5.593,4.404 -1.547,-9.997 z"
       id="path57"
       inkscape:connector-curvature="0"
       style="fill:#c89347" />
    <path
       d="m 307.974,101.847 -1.293,5.456 -1.781,-5.158 -14.424,-2.6996 -8.021,-0.1637 6.384,-3.9287 9.318,3.7179 7.834,1.0911 7.734,-2.1819 7.852,-2.2997 8.021,1.6369 -10.803,2.2917 -10.821,2.238 z"
       id="path59"
       inkscape:connector-curvature="0"
       style="fill:#c89347" />
    <path
       d="m 297.36,106.422 -3.896,1.002 -4.563,-3.339 -3.562,-0.556 -5.231,-1.559 -4.675,-2.1144 -5.009,-4.7861 7.012,1.5583 0.891,-4.7861 3.45,5.0087 3.005,-1.5583 2.226,3.8957 4.23,-1.1131 3.116,2.8943 4.007,0 -1.001,5.453 z"
       id="path61"
       inkscape:connector-curvature="0"
       style="fill:#fff4e0" />
    <path
       d="m 313.721,106.089 3.896,1.001 4.563,-3.339 3.562,-0.556 5.231,-1.559 4.675,-2.1143 5.009,-4.7861 -7.012,1.5583 -0.891,-4.7861 -3.45,5.0087 -3.005,-1.5583 -2.227,3.8956 -4.229,-1.113 -3.117,2.8942 -4.007,0 1.002,5.454 z"
       id="path63"
       inkscape:connector-curvature="0"
       style="fill:#fff4e0" />
    <path
       d="m 294.397,91.501 11.177,2.8372 11.952,-3.3543 -12.725,1.5488 -10.404,-1.0317 z"
       id="path65"
       inkscape:connector-curvature="0"
       style="fill:#c89347" />
  </g>
  <g
     id="beard"
     transform="translate(-148.671,-52.069032)">
    <path
       d="m 268.178,133.181 -0.7,-9.847 3.296,-14.786 5.432,18.001 7.426,3.368 0.079,18.273 10.155,9.493 3.818,-4.935 18.625,-1.397 5.121,4.47 10.67,-9.937 -1.837,-21.337 8.62,-0.424 2.287,-19.346 5.381,11.04 -0.187,9.511 5.759,12.74 -5.41,11.693 1.745,9.249 -8.726,7.505 -4.887,9.424 -16.928,0.349 -6.283,12.74 -14.834,-10.82 -12.217,4.363 -6.108,-11.344 -7.155,-4.538 1.57,-8.726 -7.33,-6.283 1.571,-8.202 1.047,-10.297 z"
       id="path68"
       inkscape:connector-curvature="0"
       style="fill:#dbd9ca" />
  </g>
  <g
     id="Layer 2"
     transform="translate(-148.671,-52.069032)">
    <path
       d="m 294.323,148.424 25.952,-1.749 -0.729,5.394 -11.227,2.187 -12.538,-0.874 -1.458,-4.958 z"
       id="path71"
       inkscape:connector-curvature="0"
       style="fill:#ddb396" />
    <path
       d="m 302.157,137.344 -15.285,7.868 -2.698,16.409 4.945,-4.496 4.496,-5.17 8.767,-0.674 6.968,-0.225 8.093,-1.349 6.744,2.248 4.046,3.147 4.945,5.171 -4.496,-15.511 -14.161,-6.968 -12.364,-0.45 z"
       id="path73"
       inkscape:connector-curvature="0"
       style="fill:#fff4e0" />
  </g>
  <g
     id="nose"
     transform="translate(-148.671,-52.069032)">
    <path
       d="m 298.217,132.116 9.582,9.794 6.845,-10.426 -16.427,0.632 z"
       id="path76"
       inkscape:connector-curvature="0"
       style="fill:#ecbb73" />
  </g>
  <g
     id="l eye"
     transform="translate(-148.671,-52.069032)">
    <path
       d="m 281.702,113.701 9.393,-5.698 4.851,4.081 -6.083,2.926 -8.161,-1.309 z"
       id="path79"
       inkscape:connector-curvature="0"
       style="fill:#ffffff" />
    <path
       d="m 284.751,112.046 c 0,-2.249 1.824,-4.073 4.073,-4.073 2.249,0 4.073,1.824 4.073,4.073 0,2.249 -1.824,4.073 -4.073,4.073 -2.249,0 -4.073,-1.824 -4.073,-4.073 z"
       id="path81"
       inkscape:connector-curvature="0"
       style="fill:#976f35" />
    <path
       d="m 286.145,112.046 c 0,-1.479 1.2,-2.679 2.679,-2.679 1.479,0 2.679,1.2 2.679,2.679 0,1.479 -1.2,2.679 -2.679,2.679 -1.479,0 -2.679,-1.2 -2.679,-2.679 z"
       id="path83"
       inkscape:connector-curvature="0"
       style="fill:#000000" />
    <path
       d="m 281.659,113.549 7.765,1.553 6.298,-2.976 -6.985,6.022 -5.907,-3.314 -1.171,-1.285 z"
       id="path85"
       inkscape:connector-curvature="0"
       style="fill:#ecbb73" />
    <path
       d="m 291.146,107.969 -9.487,5.667 3.476,-6.077 6.011,0.41 z"
       id="path87"
       inkscape:connector-curvature="0"
       style="fill:#ecbb73" />
  </g>
  <g
     id="r eye"
     transform="translate(-148.671,-52.069032)">
    <path
       d="m 329.688,113.244 -9.393,-5.698 -4.851,4.081 6.083,2.925 8.161,-1.308 z"
       id="path90"
       inkscape:connector-curvature="0"
       style="fill:#ffffff" />
    <path
       d="m 326.639,111.588 c 0,-2.249 -1.824,-4.073 -4.073,-4.073 -2.25,0 -4.073,1.824 -4.073,4.073 0,2.25 1.823,4.073 4.073,4.073 2.249,0 4.073,-1.823 4.073,-4.073 z"
       id="path92"
       inkscape:connector-curvature="0"
       style="fill:#976f35" />
    <path
       d="m 325.244,111.588 c 0,-1.479 -1.199,-2.678 -2.678,-2.678 -1.48,0 -2.679,1.199 -2.679,2.678 0,1.48 1.199,2.679 2.679,2.679 1.479,0 2.678,-1.199 2.678,-2.679 z"
       id="path94"
       inkscape:connector-curvature="0"
       style="fill:#000000" />
    <path
       d="m 329.731,113.092 -7.765,1.553 -6.298,-2.977 6.985,6.023 5.907,-3.314 1.171,-1.285 z"
       id="path96"
       inkscape:connector-curvature="0"
       style="fill:#ecbb73" />
    <path
       d="m 320.243,107.512 9.488,5.666 -3.476,-6.077 -6.012,0.411 z"
       id="path98"
       inkscape:connector-curvature="0"
       style="fill:#ecbb73" />
  </g>
</svg>

<?xml version="1.0" encoding="UTF-8"?>
<!DOCTYPE svg PUBLIC "-//W3C//DTD SVG 1.1//EN"
  "http://www.w3.org/Graphics/SVG/1.1/DTD/svg11.dtd">
<svg xmlns:xlink="http://www.w3.org/1999/xlink" width="612pt" viewBox="0,0,612,792" xmlns="http://www.w3.org/2000/svg" version="1.1" height="792pt">
<defs/>
<g id="back cloak">
<path fill="#607f84" d="M396.36 195.016 L467.376 663.49 L331.072 626.837 L348.253 166.381 L396.36 195.016 Z" opacity="1"/>
<path fill="#c89347" d="M264.384 161.909 L278.12 159.604 L335.04 159.932 L356.023 163.812 L316.322 218.815 L252.641 188.104 L264.384 161.909 Z" opacity="1"/>
</g>
<g id="legs">
<path fill="#ecbb73" d="M257.853 570.413 L259.463 592.152 L268.319 658.175 L265.099 710.509 L252.216 726.612 L214.374 749.962 L223.231 757.208 L304.551 749.157 L300.525 720.976 L300.525 686.355 L301.331 639.656 L310.992 613.086 L298.11 551.09 L258.658 549.48 " opacity="1"/>
<path fill="#ecbb73" d="M389.897 568.803 L388.287 590.542 L379.43 656.564 L382.651 708.899 L395.533 725.002 L433.375 748.351 L424.519 755.598 L343.198 747.546 L347.224 719.366 L347.224 684.745 L346.419 638.046 L336.757 611.476 L349.64 549.479 L389.092 547.869 " opacity="1"/>
</g>
<g id="arm">
<path fill="#ecbb73" d="M390.148 183.901 L408.898 208.357 L407.267 241.781 L422.756 292.324 L474.929 298.03 L490.418 275.204 L509.983 290.693 L492.049 323.302 L467.593 321.671 L395.854 320.856 L377.92 264.607 L363.246 201.836 L373.029 170.858 L390.148 183.901 Z" opacity="1"/>
<path fill="#82acb3" d="M408.671 243.062 L453.029 274.314 L443.451 304.557 L468.655 513.744 L481.256 568.183 L427.825 539.451 L418.68 381.997 L411.695 303.045 L408.671 243.062 Z" opacity="1"/>
<path fill="#fff4e0" d="M493.224 277.555 L520.684 232.291 L534.566 246.474 L503.786 285.703 L493.224 277.555 Z" opacity="1"/>
<path fill="#c89347" d="M383.985 207.848 L378.554 225.048 L382.175 275.745 L395.151 319.5 L412.653 319.199 L411.748 304.412 L399.677 292.945 L393.944 268.502 L391.228 242.852 L382.477 225.652 L383.985 207.848 Z" opacity="1"/>
<path fill="#c89347" d="M445.243 311.051 L467.272 308.637 L461.237 320.406 L445.243 321.311 L445.243 311.051 Z" opacity="1"/>
<path fill="#c89347" d="M477.685 305.928 L471.865 304.55 L482.514 317.077 L478.757 321.703 L491.775 323.234 L486.108 312.361 L477.685 305.928 Z" opacity="1"/>
<path fill="#fff4e0" d="M476.542 307.56 L485.896 316.613 L459.039 354.937 L445.46 342.565 L476.542 307.56 Z" opacity="1"/>
</g>
<g id="clothing">
<path fill="#f4f1e1" d="M241.994 470.18 L240.159 564.677 L419.062 559.172 L391.538 400.453 L388.786 373.847 L253.003 396.784 L241.994 470.18 Z" opacity="1"/>
<path fill="#f4f1e1" d="M225.476 405.638 L399.93 402.377 L406.452 374.66 L394.224 342.051 L381.996 301.291 L380.365 232.814 L374.659 171.673 L353.464 159.445 L316.779 194.499 L250.747 168.412 L225.476 405.638 Z" opacity="1"/>
<path fill="#607f84" d="M262.281 157.051 L207.129 190.504 L156.671 326.14 L230.984 470.18 L262.975 483.898 L319.225 420.311 L353.464 323.302 L391.778 174.119 L350.203 160.26 L299 229.378 L262.281 157.051 Z" opacity="1"/>
</g>
<g id="hair">
<path fill="#c8c5b8" d="M281.084 71.1676 L264.696 86.6107 L258.786 97.4458 L262.332 101.583 L256.225 109.463 L257.407 121.48 L257.604 133.891 L262.923 137.831 L265.681 146.499 L275.137 144.529 L346.058 143.938 L356.105 139.998 L352.953 125.617 L359.651 118.525 L353.938 102.568 L354.923 89.7627 L343.694 82.8677 L340.739 75.7756 L328.747 69.798 L281.084 71.1676 Z" opacity="1"/>
</g>
<g id="ears">
<path fill="#c89347" d="M268.435 106.68 L263.516 102.699 L258.13 109.257 L261.174 123.544 L265.156 130.336 L271.245 125.652 L268.435 106.68 Z" opacity="1"/>
<path fill="#ecbb73" d="M343.09 104.513 L348.008 100.532 L353.395 107.09 L350.35 121.377 L346.369 128.169 L340.279 123.485 L343.09 104.513 Z" opacity="1"/>
</g>
<g id="Layer 1">
<path fill="#ecbb73" d="M271.723 114.213 C271.723 84.9011 278.416 60.0216 305.151 60.0691C331.887 60.1166 340.481 84.1428 340.481 113.455C340.481 142.767 327.814 166.218 305.151 166.218C282.488 166.218 271.723 143.526 271.723 114.213Z" opacity="1"/>
<path fill="#c89347" d="M297.164 132.221 L307.777 137.569 L316.224 131.168 L310.025 141.165 L304.405 143.189 L297.164 132.221 Z" opacity="1"/>
<path fill="#c89347" d="M296.321 132.432 L300.112 126.43 L296.321 126.219 L283.5 145.436 L296.321 132.432 Z" opacity="1"/>
<path fill="#c89347" d="M316.119 131.484 L317.593 127.062 L329.698 142.21 L316.119 131.484 Z" opacity="1"/>
<path fill="#c89347" d="M277.745 99.5223 L296.762 105.649 L303.056 110.37 L302.433 129.697 L296.822 126.081 L296.259 117.364 L287.595 123.837 L274.958 118.012 L275.857 143.413 L298.785 163.195 L270.237 143.413 L270.964 111.686 L274.129 87.0534 L282.732 69.7216 L280.128 87.8904 L277.745 99.5223 Z" opacity="1"/>
<path fill="#c89347" d="M309.984 110.044 L316.094 104.525 L330.81 100.761 L337.674 110.369 L322.558 119.073 L317.124 115.637 L311.531 120.041 L309.984 110.044 Z" opacity="1"/>
<path fill="#c89347" d="M307.974 101.847 L306.681 107.303 L304.9 102.145 L290.476 99.4454 L282.455 99.2817 L288.839 95.353 L298.157 99.0709 L305.991 100.162 L313.725 97.9801 L321.577 95.6804 L329.598 97.3173 L318.795 99.609 L307.974 101.847 Z" opacity="1"/>
<path fill="#fff4e0" d="M297.36 106.422 L293.464 107.424 L288.901 104.085 L285.339 103.529 L280.108 101.97 L275.433 99.8556 L270.424 95.0695 L277.436 96.6278 L278.327 91.8417 L281.777 96.8504 L284.782 95.2921 L287.008 99.1878 L291.238 98.0747 L294.354 100.969 L298.361 100.969 L297.36 106.422 Z" opacity="1"/>
<path fill="#fff4e0" d="M313.721 106.089 L317.617 107.09 L322.18 103.751 L325.742 103.195 L330.973 101.636 L335.648 99.5217 L340.657 94.7356 L333.645 96.2939 L332.754 91.5078 L329.304 96.5165 L326.299 94.9582 L324.072 98.8538 L319.843 97.7408 L316.726 100.635 L312.719 100.635 L313.721 106.089 Z" opacity="1"/>
<path fill="#c89347" d="M294.397 91.501 L305.574 94.3382 L317.526 90.9839 L304.801 92.5327 L294.397 91.501 Z" opacity="1"/>
</g>
<g id="beard">
<path fill="#dbd9ca" d="M268.178 133.181 L267.478 123.334 L270.774 108.548 L276.206 126.549 L283.632 129.917 L283.711 148.19 L293.866 157.683 L297.684 152.748 L316.309 151.351 L321.43 155.821 L332.1 145.884 L330.263 124.547 L338.883 124.123 L341.17 104.777 L346.551 115.817 L346.364 125.328 L352.123 138.068 L346.713 149.761 L348.458 159.01 L339.732 166.515 L334.845 175.939 L317.917 176.288 L311.634 189.028 L296.8 178.208 L284.583 182.571 L278.475 171.227 L271.32 166.689 L272.89 157.963 L265.56 151.68 L267.131 143.478 L268.178 133.181 Z" opacity="1"/>
</g>
<g id="Layer 2">
<path fill="#ddb396" d="M294.323 148.424 L320.275 146.675 L319.546 152.069 L308.319 154.256 L295.781 153.382 L294.323 148.424 Z" opacity="1"/>
<path fill="#fff4e0" d="M302.157 137.344 L286.872 145.212 L284.174 161.621 L289.119 157.125 L293.615 151.955 L302.382 151.281 L309.35 151.056 L317.443 149.707 L324.187 151.955 L328.233 155.102 L333.178 160.273 L328.682 144.762 L314.521 137.794 L302.157 137.344 Z" opacity="1"/>
</g>
<g id="nose">
<path fill="#ecbb73" d="M298.217 132.116 L307.799 141.91 L314.644 131.484 L298.217 132.116 Z" opacity="1"/>
</g>
<g id="l eye">
<path fill="#ffffff" d="M281.702 113.701 L291.095 108.003 L295.946 112.084 L289.863 115.01 L281.702 113.701 Z" opacity="1"/>
<path fill="#976f35" d="M284.751 112.046 C284.751 109.797 286.575 107.973 288.824 107.973C291.073 107.973 292.897 109.797 292.897 112.046C292.897 114.295 291.073 116.119 288.824 116.119C286.575 116.119 284.751 114.295 284.751 112.046Z" opacity="1"/>
<path fill="#000000" d="M286.145 112.046 C286.145 110.567 287.345 109.367 288.824 109.367C290.303 109.367 291.503 110.567 291.503 112.046C291.503 113.525 290.303 114.725 288.824 114.725C287.345 114.725 286.145 113.525 286.145 112.046Z" opacity="1"/>
<path fill="#ecbb73" d="M281.659 113.549 L289.424 115.102 L295.722 112.126 L288.737 118.148 L282.83 114.834 L281.659 113.549 Z" opacity="1"/>
<path fill="#ecbb73" d="M291.146 107.969 L281.659 113.636 L285.135 107.559 L291.146 107.969 Z" opacity="1"/>
</g>
<g id="r eye">
<path fill="#ffffff" d="M329.688 113.244 L320.295 107.546 L315.444 111.627 L321.527 114.552 L329.688 113.244 Z" opacity="1"/>
<path fill="#976f35" d="M326.639 111.588 C326.639 109.339 324.815 107.515 322.566 107.515C320.316 107.515 318.493 109.339 318.493 111.588C318.493 113.838 320.316 115.661 322.566 115.661C324.815 115.661 326.639 113.838 326.639 111.588Z" opacity="1"/>
<path fill="#000000" d="M325.244 111.588 C325.244 110.109 324.045 108.91 322.566 108.91C321.086 108.91 319.887 110.109 319.887 111.588C319.887 113.068 321.086 114.267 322.566 114.267C324.045 114.267 325.244 113.068 325.244 111.588Z" opacity="1"/>
<path fill="#ecbb73" d="M329.731 113.092 L321.966 114.645 L315.668 111.668 L322.653 117.691 L328.56 114.377 L329.731 113.092 Z" opacity="1"/>
<path fill="#ecbb73" d="M320.243 107.512 L329.731 113.178 L326.255 107.101 L320.243 107.512 Z" opacity="1"/>
</g>
</svg>
